X: 19864
T: Jessie Over The Bridge
R: reel
M: 4/4
K: Dmajor
BA|:GEBE GE~E2|GEBE D2EF|GEBE GABd|1 edce d2BA:|2 edce d3A||
|:(3Bcd ef ~g3e|abaf gfed|(3Bcd ef g2fg|1 afge d3A:|2 afge d2||

